X:1702
T:Hull's Victory
M:C|
L:1/8
B:O'Neill's 1702
R:Hornpipe
Z:"Transcribed by Bob Safranek, rjs@gsp.org"
K:D
   A2 | dAdf dAdf | fedc  d2 (FG) | A2 AB A2 G2 | FGEF  D2  A2  |
        dAdf dAdf | e2 e2 e3  d   | dcBA  GAB^G | A2 A2 A2     :|
|: A2 | dcde fedc | B2 G2 G2 (cd) | e^def gfed  | c2 A2 A2 (Bc) |
        dAdf dAdf | eAeg  eAeg    | fedf  edce  | d2 d2 d2     :|


